src/icons/command-http.svg

<?xml version="1.0" encoding="UTF-8"?>
<svg width="11px" height="14px" viewBox="0 0 11 14" version="1.1" xmlns="http://www.w3.org/2000/svg" xmlns:xlink="http://www.w3.org/1999/xlink">
    <!-- Generator: Sketch 59 (86127) - https://sketch.com -->
    <title>HDL/Icon/Standard/Command/http</title>
    <desc>Created with Sketch.</desc>
    <g id="Colors" stroke="none" stroke-width="1" fill="none" fill-rule="evenodd">
        <g id="Command-Icons" transform="translate(-120.000000, -500.000000)" fill="#4D5969">
            <g id="HTTP" transform="translate(102.000000, 482.000000)">
                <g id="HDL/Icon/Standard/Command/http" transform="translate(18.000000, 18.000000)">
                    <path d="M6.6,0 L11,4.2 L11,13.3 C11,13.65 10.6333333,14 10.2666667,14 L10.2666667,14 L0.733333333,14 C0.366666667,14 0,13.65 0,13.3 L0,13.3 L0,0.7 C0,0.28 0.293333333,0 0.733333333,0 L0.733333333,0 L6.6,0 Z M5.86666667,1.4 L1.46666667,1.4 L1.46666667,12.6 L9.53333333,12.6 L9.53333333,4.9 L5.86666667,4.9 L5.86666667,1.4 Z M6.12222222,6 C6.35555556,6 6.51111111,6.14285714 6.43333333,6.28571429 L6.43333333,6.28571429 L6.43333333,6.35714286 L5.11111111,10.7142857 C5.11111111,10.8571429 4.95555556,10.9285714 4.8,10.9285714 C4.64444444,10.9285714 4.48888889,10.7857143 4.48888889,10.6428571 L4.48888889,10.6428571 L4.48888889,10.5714286 L5.81111111,6.21428571 C5.81111111,6.07142857 5.96666667,6 6.12222222,6 Z M3.78888889,6.92857143 C3.94444444,6.92857143 4.1,7.07142857 4.1,7.21428571 C4.1,7.35714286 4.1,7.42857143 4.02222222,7.42857143 L4.02222222,7.42857143 L2.93333333,8.5 L4.02222222,9.5 C4.1,9.57142857 4.1,9.64285714 4.1,9.71428571 C4.1,9.85714286 3.94444444,10 3.78888889,10 C3.71111111,10 3.63333333,10 3.55555556,9.92857143 L3.55555556,9.92857143 L2.23333333,8.64285714 C2.15555556,8.57142857 2.15555556,8.5 2.15555556,8.42857143 C2.15555556,8.35714286 2.15555556,8.28571429 2.23333333,8.21428571 L2.23333333,8.21428571 L3.55555556,7 C3.63333333,6.92857143 3.71111111,6.92857143 3.78888889,6.92857143 Z M7.21111111,6.92857143 C7.28888889,6.92857143 7.36666667,6.92857143 7.44444444,7 L7.44444444,7 L8.76666667,8.28571429 C8.84444444,8.28571429 8.84444444,8.35714286 8.84444444,8.42857143 C8.84444444,8.5 8.84444444,8.57142857 8.76666667,8.64285714 L8.76666667,8.64285714 L7.44444444,9.85714286 C7.36666667,9.92857143 7.28888889,9.92857143 7.21111111,9.92857143 C7.05555556,9.92857143 6.9,9.78571429 6.9,9.64285714 C6.9,9.57142857 6.9,9.5 6.97777778,9.42857143 L6.97777778,9.42857143 L8.06666667,8.42857143 L6.97777778,7.42857143 C6.9,7.35714286 6.9,7.28571429 6.9,7.21428571 C6.9,7.07142857 7.05555556,6.92857143 7.21111111,6.92857143 Z" id="Combined-Shape"></path>
                </g>
            </g>
        </g>
    </g>
</svg>

<?xml version="1.0" encoding="utf-8"?>
<!-- Generator: Adobe Illustrator 20.1.0, SVG Export Plug-In . SVG Version: 6.00 Build 0)  -->
<svg version="1.1" id="Layer_1" xmlns="http://www.w3.org/2000/svg" xmlns:xlink="http://www.w3.org/1999/xlink" x="0px" y="0px"
	 viewBox="0 0 11 14" style="enable-background:new 0 0 11 14;" xml:space="preserve">
<style type="text/css">
	.st0{fill:#4D5969;}
</style>
<title>HDL/Icon/Standard/Command/http</title>
<desc>Created with Sketch.</desc>
<g id="Colors">
	<g id="Command-Icons" transform="translate(-120.000000, -500.000000)">
		<g id="HTTP" transform="translate(102.000000, 482.000000)">
			<g id="HDL_x2F_Icon_x2F_Standard_x2F_Command_x2F_http" transform="translate(18.000000, 18.000000)">
				<path id="Combined-Shape" class="st0" d="M6.6,0L11,4.2v9.1c0,0.3-0.4,0.7-0.7,0.7l0,0H0.7C0.4,14,0,13.6,0,13.3l0,0V0.7
					C0,0.3,0.3,0,0.7,0l0,0H6.6z M5.9,1.4H1.5v11.2h8.1V4.9H5.9V1.4z M6.1,6c0.2,0,0.4,0.1,0.3,0.3l0,0v0.1l-1.3,4.4
					c0,0.1-0.2,0.2-0.3,0.2c-0.2,0-0.3-0.1-0.3-0.3l0,0v-0.1l1.3-4.4C5.8,6.1,6,6,6.1,6z M3.8,6.9c0.2,0,0.3,0.1,0.3,0.3
					s0,0.2-0.1,0.2l0,0L2.9,8.5l1.1,1c0.1,0.1,0.1,0.1,0.1,0.2c0,0.1-0.2,0.3-0.3,0.3c-0.1,0-0.2,0-0.2-0.1l0,0L2.2,8.6
					C2.2,8.6,2.2,8.5,2.2,8.4c0-0.1,0-0.1,0.1-0.2l0,0L3.6,7C3.6,6.9,3.7,6.9,3.8,6.9z M7.2,6.9c0.1,0,0.2,0,0.2,0.1l0,0l1.3,1.3
					c0.1,0,0.1,0.1,0.1,0.1c0,0.1,0,0.1-0.1,0.2l0,0L7.4,9.9C7.4,9.9,7.3,9.9,7.2,9.9c-0.2,0-0.3-0.1-0.3-0.3c0-0.1,0-0.1,0.1-0.2
					l0,0l1.1-1L7,7.4C6.9,7.4,6.9,7.3,6.9,7.2C6.9,7.1,7.1,6.9,7.2,6.9z"/>
			</g>
		</g>
	</g>
</g>
</svg>
